**kern	**kern
*staff1	*staff1
*head1[head1a]	*head1[head1a]
*head1[head1b]	*head1[head1b]
*head1[head1aa]	*head1[head1aa]
*solo1[solo1a]	*solo1[solo1a]
*solo1[solo1b]	*solo1[solo1b]
*solo1[solo1aa]	*solo1[solo1aa]
=1-	=1-
*clefG2	*clefG2
*k[]	*k[]
*B-:	*B-:
*M4/4	*M4/4
*>head1a	*>head1a
{12d/L	1B-:maj
12d#/	.
12e/J	.
8f/L	.
8d#/J	.
8e-/L	.
8f/J	.
8r	.
[8d#/	.
=2	=2
8d#/L]	2C:min
8c/	.
8B-/	.
8G/J	.
4c/	2F:dom
8r	.
8B-/	.
=3	=3
8A/L	1B-:maj
8B-/	.
8d/	.
8f/J	.
8a/L	.
8a-/	.
8g/	.
8g-/J	.
=4	=4
8f/L	2C:min
8e/	.
8e-/	.
8G/J	.
4F#/	2F:dom
8d/L	.
8c/J	.
=5	=5
8B-/L	2F:min
8A/	.
8A-/	.
8B-/J	.
8b-/L	2B-:dom
8a-/	.
8g/	.
8f/J	.
=6	=6
8e-/L	2E-:maj
8A/	.
8B-/	.
8c/J	.
8d-/L	2E-:o7
8B-/	.
8G/	.
8A/J	.
=7	=7
8c/L	1B-:maj
8B-/	.
8A/	.
8B-/J	.
8d/L	.
[8f/J	.
4f/]}	.
=8	=8
2r	2C:min
2r	1F:dom
=9	=9
4r	1B-:maj
8r	.
{[8ff\	.
8ff\L]	.
[8dd\	.
8dd\]	.
8b-\J	.
=10||	=10||
2cc\	2C:min
2r	2F:dom
=11	=11
8r	2B-:maj
8e/	.
12f\L	.
12b-\	.
12dd\J	.
8ff\L	2G:dom
8ee\	.
8ee-\	.
8bn\J	.
=12	=12
8dd\L	2C:min
8dd-\	.
8cc\	.
8b\J	.
8b-/L	2F:dom
8g-/	.
8e-/	.
8c/J	.
=13	=13
8d/L	2F:min
8f/	.
8a-/	.
8cc/J	.
8b-/L	2B-:dom
8g-/J	.
4r	.
=14	=14
2r	1E-:maj
8b-\L	.
16cc\L	.
16b-\J	.
8g\	.
8f\J	.
=15	=15
4e-/	1B-:maj
8b-\L	.
16cc\L	.
16b-\JJ	.
8g-/L	.
8f/	.
8e-/	.
8c/J	.
=16	=16
8d/L	1B-:maj
8f/J}	.
4r	.
2r	.
=17	=17
4r	1D:dom
8r	.
*>head1b	*>head1b
{8b\	.
12a-/L	.
12e/	.
12c/J	.
[4b\	.
=18||	=18||
4b\]	1D:dom
8a/L	.
8g/J	.
8f#/L	.
8a/	.
8cc/	.
8ee/J	.
=19	=19
8dd\L	1G:dom
8cc\	.
8b\	.
16dd\L	.
16cc\JJ	.
8a/L	.
8f/	.
8d/	.
8A/J	.
=20	=20
8B/L	1G:dom
8e/	.
8e-/	.
8B/J	.
8d/L	.
8F/J}	.
4r	.
=21	=21
4r	1C:dom
8r	.
{16c/LL	.
16d/JJ	.
8e/L	.
8f/	.
8g/	.
8a/J	.
=22	=22
8cc\L	1C:dom
8b\	.
8b-\	.
8a\J	.
8g/L	.
8f/J	.
12e/L	.
12g/	.
12b-/J	.
=23	=23
12dd\L	1F:dom
12dd-\	.
12cc\J	.
8b/L	.
8g/J	.
8e-/L	.
8B/	.
8b-/	.
8a-/J	.
=24	=24
8a/L	1F:dom
[8aa/J	.
2aa\]	.
8gg-\L	.
8ee\J	.
=25	=25
8ff\L	1B-:maj
8dd\J}	.
4r	.
2r	.
=26||	=26||
2r	2C:min
2r	2F:dom
=27	=27
8r	1B-:maj
*>head1aa	*>head1aa
{16dd/LL	.
16cc/J	.
8f/	.
8g/J	.
8b-\L	.
8ee-\	.
8dd\	.
8cc\J	.
=28	=28
8b-/L	2C:min
8g-/	.
8e-/	.
8c/J	.
8d/L	2F:dom
8B-/	.
8G/	.
8A/J	.
=29	=29
8c/L	2F:min
8B/	.
8B-/	.
8A/J	.
8A-/L	2B-:dom
8c/	.
8b-/	.
8a-/J	.
=30	=30
8g/L	2E-:maj
8f/J	.
4e-/	.
8b-/L	2E-:min
8g-/	.
8e-/	.
8c/J	.
=31	=31
8d/L	1B-:maj
8B-/J}	.
4r	.
2r	.
=32	=32
2r	2C:min
2r	2F:dom
=33	=33
4r	1B-:maj
*>solo1a	*>solo1a
{4ee\	.
4ff\	.
4cc#\	.
=34||	=34||
4dd\	2C:min
8a/L	.
[8b-/J	.
8b-\L]	2F:dom
8dd\	.
8b-\	.
8f\J	.
=35	=35
8g/L	2B-:maj
8a/	.
8cc/	.
8a/J	.
8b/L	2D-:min
8a-/	.
8e/	.
8d-/J	.
=36	=36
12b-\L	2C:min
12cc\	.
12b-\J	.
8a/L	.
8g/J	.
8f/L	2F:dom
8e-/	.
8d/	.
8c/J	.
=37	=37
8B-/L	2F:min
8A-/	.
8G/	.
8B-/J	.
8b-/L	2B-:dom
8a-/	.
8g/	.
8f/J	.
=38	=38
8e-/L	2E-:maj
8A/	.
8B-/	.
8c/J	.
8d-/L	2E:o7
8B-/	.
8G/	.
8A/J	.
=39	=39
8c/L	1B-:maj
[8B-/J	.
2B-/]}	.
4r	.
=40	=40
2r	2C:min
2r	2F:dom
=41	=41
{12B-/L	1B-:maj
12c/	.
12B-/J	.
8A/L	.
8B-/J	.
8c/L	.
8A/J	.
12B-/L	.
12c/	.
12d/J	.
=42||	=42||
8f/	2C:min
4e-/	.
[8en/	.
8e/L]	2F:dom
[8g/	.
8g/]	.
8e/J	.
=43	=43
4f/}	1B-:maj
4r	.
2r	.
=44	=44
8r	1C:min
{16cc\LL	.
16b-\JJ	.
16bn/LL	.
16a-/	.
16e/	.
16d/JJ	.
16b-/LL	1F:dom
16an/	.
16g/	.
16f/JJ	.
16e-/LL	.
16d/	.
16c/	.
16B-/JJ	.
=45	=45
16A/LL	2F:min
16c/	.
16e-/	.
16g-/JJ	.
4f/	.
8r	1B-:dom
4e-/	.
8c/	.
=46	=46
8B-/L	2E-:maj
8A-/	.
8G/	.
8B-/J	.
8b-/L	2E-:min
8g-/	.
8e-/	.
8c/J	.
=47	=47
8d/L	1B-:maj
8B-/	.
8G/	.
8A/J	.
8c/L	.
8B-/	.
8A/	.
8B-/J	.
=48	=48
2d/}	1B-:maj
2r	.
=49	=49
1r	1D:dom
=50||	=50||
2r	1D:dom
*>solo1b	*>solo1b
{8dd\L	.
8dd-\	.
8cc\	.
8b\J	.
=51	=51
8a/L	1G:dom
8g/	.
8g-/	.
8a/J	.
8cc\L	.
8ee-\	.
8dd\	.
8cc\J	.
=52	=52
8b/L	1G:dom
8d/	.
8f/	.
[8a-/J	.
4a-/]	.
8g/L	.
8f/J	.
=53	=53
8e/L	1C:dom
8c/J	.
4B-/	.
8d/L	.
8B-/	.
8G/	.
8A/J	.
=54	=54
8c/L	1C:dom
8A/J	.
12B-/L	.
12d/	.
12f/J	.
8a/L	.
8g/	.
8e/	.
8c/J	.
=55	=55
4f/	1F:dom
2f/}	.
4r	.
=56	=56
1r	1F:dom
=57	=57
4r	1B-:maj
*>solo1aa	*>solo1aa
{12f/L	.
12g/	.
12a/J	.
8b-\L	.
16cc\L	.
16cc#\J	.
8dd\	.
[8b-\J	.
=58||	=58||
8b-\L]	2C:min
16cc\L	.
16b-\J	.
8g\	.
8b-\J	.
8cc#\L	2F:dom
[8dd\J	.
4dd\]	.
=59	=59
4r	1B-:maj
12f/L	.
12g/	.
12a/J	.
8b-\L	.
16cc\L	.
16cc#\J	.
8dd\	.
[8ccn\J	.
=60	=60
4cc\]	2C:min
8b-/L	.
8g/J	.
8a/L	2F:dom
8f/J	.
4r	.
=61	=61
4r	2F:min
8r	.
16cc\LL	.
16b\JJ	.
8b-/L	2B-:dom
8a/	.
8a-/	.
8cc/J	.
=62	=62
8b-/L	2E-:maj
8g/	.
8e-/	.
8c/J	.
8b-/L	2E-:min
8g-/	.
8e-/	.
8c/J	.
=63	=63
8d/L	1B-:maj
8B-/	.
8G/	.
8A/J	.
8c/L	.
8B-/	.
8A/	.
8B-/J	.
=64	=64
8e-/	2C:min
4f/	.
[8d/	.
4d/_	2F:dom
8d/L]	.
16f/L	.
16d/JJ	.
=65	=65
8c/L	1B-:maj
[8B-/J	.
2B-/]}	.
4r	.
==	==
*-	*-
